svgs/sharp-solid/circle-parking.svg

<svg xmlns="http://www.w3.org/2000/svg" viewBox="0 0 512 512"><!--! Font Awesome Pro 6.6.0 by @fontawesome - https://fontawesome.com License - https://fontawesome.com/license (Commercial License) Copyright 2024 Fonticons, Inc. --><path d="M448 256A192 192 0 1 0 64 256a192 192 0 1 0 384 0zM0 256a256 256 0 1 1 512 0A256 256 0 1 1 0 256zM200 128l80 0c53 0 96 43 96 96l0 32-5.5 0c-13.2 37.3-48.7 64-90.5 64l-48 0 0 32 0 32-64 0 0-32 0-32 0-64 0-96 0-32 32 0zm112 96c0-17.7-14.3-32-32-32l-48 0 0 64 48 0c17.7 0 32-14.3 32-32z"/></svg>

<svg xmlns="http://www.w3.org/2000/svg" viewBox="0 0 512 512"><!--! Font Awesome Pro 6.4.2 by @fontawesome - https://fontawesome.com License - https://fontawesome.com/license (Commercial License) Copyright 2023 Fonticons, Inc. --><path d="M448 256A192 192 0 1 0 64 256a192 192 0 1 0 384 0zM0 256a256 256 0 1 1 512 0A256 256 0 1 1 0 256zM200 128h80c53 0 96 43 96 96s-43 96-96 96H232v32 32H168V352 320 256 160 128h32zm112 96c0-17.7-14.3-32-32-32H232v64h48c17.7 0 32-14.3 32-32z"/></svg>
